/* XPM */
static const char *neodlg_icon_xpm[] = {
/* columns rows colors chars-per-pixel */
"32 32 109 2 ",
"   c None",
".  c #5A5100",
"X  c #5F5600",
"o  c #605700",
"O  c #665C00",
"+  c #685E00",
"@  c #716600",
"#  c #756900",
"$  c #776B00",
"%  c #786C00",
"&  c #796D00",
"*  c #796D01",
"=  c #7A6E01",
"-  c #7B6F01",
";  c #7D7001",
":  c #7E7101",
">  c #807301",
",  c #807401",
"<  c #837601",
"1  c #867801",
"2  c #887A01",
"3  c #8D7F01",
"4  c #908201",
"5  c #918201",
"6  c #918301",
"7  c #928401",
"8  c #938401",
"9  c #948501",
"0  c #948601",
"q  c #968701",
"w  c #9A8B01",
"e  c #9B8C01",
"r  c #9D8D01",
"t  c #9D8E01",
"y  c #9E8F01",
"u  c #A29201",
"i  c #A39301",
"p  c #A59401",
"a  c #A59501",
"s  c #A79701",
"d  c #A89801",
"f  c #A99801",
"g  c #AD9C01",
"h  c #AE9C01",
"j  c #AF9E01",
"k  c #B4A201",
"l  c #B5A301",
"z  c #B7A401",
"x  c #B8A601",
"c  c #B9A601",
"v  c #BCA901",
"b  c #BDAA01",
"n  c #BFAC01",
"m  c #BFAD01",
"M  c #C1AE01",
"N  c #C2AF01",
"B  c #C3B001",
"V  c #C4B101",
"C  c #C5B201",
"Z  c #C6B201",
"A  c #C6B301",
"S  c #C7B301",
"D  c #C8B401",
"F  c #C9B501",
"G  c #CAB601",
"H  c #CDB801",
"J  c #CDB901",
"K  c #CEBA01",
"L  c #CFBA01",
"P  c #D1BC01",
"I  c #D1BD01",
"U  c #D3BE01",
"Y  c #D6C101",
"T  c #DAC401",
"R  c #DAC501",
"E  c #DBC501",
"W  c #DBC601",
"Q  c #DCC601",
"!  c #DDC701",
"~  c #DEC801",
"^  c #E1CB01",
"/  c #E4CD01",
"(  c #E5CF01",
")  c #E6CF01",
"_  c #E6D001",
"`  c #E7D001",
"'  c #E8D101",
"]  c #E9D201",
"[  c #EAD301",
"{  c #EBD301",
"}  c #EBD401",
"|  c #EDD501",
" . c #EDD601",
".. c #EED601",
"X. c #EED701",
"o. c #EFD701",
"O. c #EFD801",
"+. c #F0D801",
"@. c #F1D901",
"#. c #F1DA01",
"$. c #F2DA01",
"%. c #F3DB01",
"&. c #F4DB01",
"*. c #F4DC01",
"=. c #F5DC01",
"-. c #F5DD01",
";. c #F6DD01",
":. c #F6DE01",
">. c #F8DF01",
/* pixels */
"                                                                ",
"                                                                ",
"                                                                ",
"                                                                ",
"                                                                ",
"                                                                ",
"                                                                ",
"                                                                ",
"                                                                ",
"                                                                ",
"X e y y y y y q ;         q y 1                   < p z l u &   ",
"7 o.%.%.*.*.&.%.' A &   & _ *.K                 x ' %.*.*.%.( u ",
"7 O.%.( A A K ' %.*.Y   # _ *.K               D *.*.o.T Q o.^ 2 ",
"7 O.*.A       w } %.%.d O ' *.K             u %.%.~ 4     4 <   ",
"7 O.*.A         K *.*.A O ' *.K             D *.%.w             ",
"7 O.*.A         n *.*.K + ' *.K             U *._ #         # # ",
"7 O.*.A         D *.*.D O ' *.K             D *.o.4       h ' ( ",
"7 O.*.B       ; ( %.*.h O ' *.U o           p *.%.T 4     b *.%.",
"7 O.%.T u p h Q %.%.( & @ _ %.o.Q T T T Q y . T *.%.o.~ T ' %.%.",
"q %.*.*.*.*.*.*.%.( y   & ' *.*.*.*.*.*.>.l   > U O.*.*.*.*.*.*.",
"# n M M M M M b d &       x M M M M M M M 3       q l n M M M M ",
"                                                                ",
"                                                                ",
"                                                                ",
"                                                                ",
"                                                                ",
"                                                                ",
"                                                                ",
"                                                                ",
"                                                                ",
"                                                                ",
"                                                                "
};
